X:1
T:Faith, Hope and Love
T:Faith, Hope and Love
T:Charles Hutchinson Gabriel
T:Neal A. McAulay, 1897
T:Public Domain Courtesy of the Cyber Hymnal™
T:Public Domain Courtesy of the Cyber Hymnal™
C:Charles Hutchinson Gabriel
Z:Public Domain
Z:Courtesy of the Cyber Hymnal™
%%score ( 1 2 ) ( 3 4 )
L:1/8
Q:1/4=110
M:4/4
K:F
V:1 treble 
V:2 treble 
V:3 bass 
V:4 bass 
V:1
 C2 | [CF]3 [CG] (FE) (DC) | [CF]2 [EG]2 [FA]2 [FB]2 | [Fc]3 [Fd] [Fc]2 ([FA][EG]) | %4
w: 1.~O|God of grace, * in- *|crease my faith! Help|me to dai- ly *|
w: 2.~O|God of grace, * up- *|build my hope! Let|not a doubt my *|
w: 3.~O|God of grace, * in- *|spire my love! Fill|my cold heart with *|
 F2 ([EG][FA]) !fermata![EG]2 C2 | [CF]3 [CG] (FE) (DC) | [CF]2 [EG]2 [FA]2 [FB]2 | %7
w: trust Thy * Word; Give|me the strength * that *|al- ways comes From|
w: spir- it * sway; Be|Thou my con- * stant *|shield of light That|
w: ho- ly * fire, That|I may live * each *|pass- ing day As|
 [Fc]3 [Fd] (cA) F2 | [FA]2 [EG]2 !fermata!F2 ||"^Refrain" [FA]2 | [EG]6 [GB]2 | [FA]6 [Fc]2 | %12
w: lean- ing on * my|bless- èd Lord.||||
w: I may walk * the|nar- row way.|O|God of|grace, in|
w: my Re- deem- * er|doth de- sire.||||
 [F=B]6 [Fd]2 | [Ec]6 ([FA][GB]) | [Ac]3 [Ac] ([Bd][Ac]) ([GB][FA]) | %15
w: |||
w: Je- sus’|name In- *|crease my faith, * up- *|
w: |||
 [GB]3 [GB] ([Ac][GB]) ([FA][EG]) | [FA]2 [FA]2 (Ac) ([EB][FA]) | ([FA]4 [EG]2) ([FA][GB]) | %18
w: |||
w: build my hope, * My *|heart with zeal * in- *|flame, * Send *|
w: |||
 [Ac]2 [Ac]2 ([Bd][Ac]) ([GB][FA]) | [GB]2 [GB]2 ([Ac][GB]) ([FA][EG]) | [FA]2 A2 (cB) (AG) | %21
w: |||
w: down Thy Spir- * it *|from a- bove, * Till *|faith and hope * are *|
w: |||
 [CF]2 [CE]2 !fermata![CF]2 |] %22
w: |
w: lost in love.|
w: |
V:2
 C2 | x4 C2 C2 | x8 | x8 | F2 x2 C2 x2 | x4 C2 C2 | x8 | x4 F2 F2 | x4 F2 || x2 | x8 | x8 | x8 | %13
 x8 | x8 | x8 | x4 F2 x2 | x8 | x8 | x8 | x2 (F_E) D2 D2 | x6 |] %22
V:3
 [F,A,]2 | [F,A,]3 [F,A,] [G,B,]2 [C,B,]2 | [A,,C]2 [C,C]2 [F,C]2 [F,G,]2 | %3
w: ~|~ ~ ~ ~|~ ~ ~ ~|
 [F,A,]3 [F,B,] [F,A,]2 C2 | [A,C]2 C2 !fermata![C,C]2 [E,B,]2 | [F,A,]3 [F,A,] [G,B,]2 [C,B,]2 | %6
w: ~ ~ ~ ~|~ ~ ~ ~|~ ~ ~ ~|
 [A,,C]2 [C,C]2 [F,C]2 [F,G,]2 | [F,A,]3 [F,B,] (A,C) [D,=B,]2 | [C,C]2 [C,B,]2 !fermata![F,A,]2 || %9
w: ~ ~ ~ ~|~ ~ ~ * ~|~ ~ ~|
 z2 | z2 [C,C]2 [C,C]2 z2 | z2 [F,C]2 [F,C]2 z2 | z2 G,2 [G,D]2 [G,=B,]2 | [C,C]6 [F,C]2 | %14
w: |O God|of grace,|in Je- sus’|name *|
 [F,C]3 [F,C] [F,C]2 [F,C]2 | [C,C]3 [C,C] [C,C]2 [C,C]2 | [F,C]2 [F,C]2 C2 C2 | [C,C]6 [F,C]2 | %18
w: ||||
 [F,C]2 [F,C]2 [F,C]2 [F,C]2 | [C,C]2 [C,C]2 [C,C]2 [C,C]2 | [F,C]2 [F,C]2 [B,,B,]2 [B,,B,]2 | %21
w: |||
 [C,A,]2 [C,G,]2 !fermata![F,,A,]2 |] %22
w: |
V:4
 x2 | x8 | x8 | x6 (F,G,) | x2 (G,F,) x4 | x8 | x8 | x4 F,2 x2 | x6 || x2 | x8 | x8 | x2 G,2 x4 | %13
 x8 | x8 | x8 | x4 (F,A,) (G,F,) | x8 | x8 | x8 | x8 | x6 |] %22

